X:3941
L:1/8
M:2/4
K:C
"^A""C" GE/F/ GG |"F" AF/G/ AA |"G7" Bd AB |"C" AG/^F/ G2 | GE/F/ GG |"F" AF/G/ AA |"G7" Bd A>B | 
"C" cc c z ::[K:G]"^B""D7" c/c/c/c/ Ad |"G" B>d GG |"D7" A>c FF |"G" GA B2 |"D7" c/c/c/c/ Ad | 
"G" B>d GG |"D7" A>c FF |"G" GG/G/ GG :|[K:C]"^C""C" G2 E>F | G3 c |"G7" BB AA | F4 | F2 D>E | 
 F3 B |"C" AA GG | E4 | G2 E>F | G3 c |"Dm" BB AA | d3 d |"D7" c>B Ac |"G" BG G2 |"D7" cA A2 | 
"G" dB B2 |"D7" c>B Ac |"G" BG G2 |"D7" cA d^F |"G" GB G z |]

